X: 15672
T: Gold Ring, The
R: jig
M: 6/8
K: Gmajor
d|cAG ~G3|cAF G2d|cAG GFG|cAG F2d|
cAG ~G3|cAG A2G|FGA fed|cAF G2:|:d|
cAd cAd|cAF G2d|cAd ~c3|cAG F2d|
cAd c2d|cAG A2G|FGA fed|cAF G2:|:d|
gdg gdc|BGG Gde|fgf fcB|AFF F2d|
gdg gdc|BGG Gde-|f3 fed|cAF G2:|:d|
gdd fdd|gdd fdd|gdd fdd|cAF GBd|
gdd fdd|gdd fdd|f/g/ag fed|cAF G2:|:A|
B2G A2G|d2G G2A|B2G A2G|cAG FGA|
BAG AGF|GFD FGA|f/g/ag fed|cAF G2:|

